X: 47
M:6/8
L:1/8
K:G
|:dFF DEE|DFF DEE|dFF DEE|DFF FED|
dFF DEE|DFF DEE|AAA ABc|dAG FED:||

